X:1
T:How pleased and blest was I
T:How pleased and blest was I - Worship (Thomas Clark)
C:Thomas Clark
Z:p28, A Second Set of
Z:Psalm and Hymn Tunes,
Z:London: (1806)
%%score [ 1 2 3 4 ]
L:1/8
M:2/2
K:D
V:1 treble nm="SOPRANO" snm="S."
V:2 treble nm="ALTO" snm="A."
V:3 treble-8 transpose=-12 nm="TENOR" snm="T."
V:4 bass nm="BASS" snm="B."
V:1
 A2 | d2 A2 B2 (A>G) | (G2 F2) z2 A2 | d2 B2 e2 d2 | (d2 c2) z2 d2 | f2 (ed) c2 d2 | c4 B4 | %7
w: There|Da- vid’s grea- ter _|son _ Has|fix’d his roy- al|throne, _ He|sits for _ grace and|judg- ment|
w: How|pleas’d and blest was _|I _ To|hear the peo- ple|cry, _ Come,|let us _ seek our|God to-|
w: Zi-|on, thrice hap- py _|place, _ A-|dorn’d with wond- rous|grace, _ And|walls of _ strength em-|brace thee|
 A4 z4 |: A2 AB c2 d2 | e4 z2 e2 | c2 A2 d2 e2 | f4 z2!p! e2 | d2 (cB) A2 B2 | A2 G2 F2!f! A2 | %14
w: there;|He bids the saint be|glad, He|makes the sin- ner|sad, And|hum- ble _ souls re-|joice with fear, and|
w: day:|Yes, with a cheer- ful|zeal We|haste to Zi- on’s|hill And|there our _ vows and|ho- nours pay, and|
w: round;|In thee our tribes ap-|pear, To|pray, and praise, and|hear The|sa- cred _ gos- pel’s|joy- ful sound, the|
 d2 f2 g2 e2 | d4 c4 | d8 :| %17
w: hum- ble souls re-|joice with|fear.|
w: there our vows and|ho- nours|pay.|
w: sa- cred gos- pel’s|joy- ful|sound.|
V:2
 D2 | F2 F2 E2 C2 | D4 z2 E2 | F2 D2 G2 F2 | (F2 E2) z2 F2 | A2 E2 E2 F2 | E4 E4 | C4 z4 |: %8
w: There|Da- vid’s grea- ter|son Has|fix’d his roy- al|throne, _ He|sits for grace and|judg- ment|there;|
w: How|pleas’d and blest was|I To|hear the peo- ple|cry, _ Come,|let us seek our|God to-|day:|
w: Zi-|on, thrice hap- py|place, A-|dorn’d with wond- rous|grace, _ And|walls of strength em-|brace thee|round;|
 F2 DD E2 (FD) | C4 z2 E2 | E2 E2 F2 A2 | A4 z4 | z8 | z4 z2"^["!f!"^]" E2 | F2 A2 D2 G2 | F4 E4 | %16
w: He bids the saint be _|glad, He|makes the sin- ner|sad,||And|hum- ble souls re-|joice with|
w: Yes, with a cheer- ful _|zeal We|haste to Zi- on’s|hill||And|there our vows and|ho- nours|
w: In thee our tribes ap- *|pear, To|pray, and praise, and|hear||The|sa- cred gos- pel’s|joy- ful|
 F8 :| %17
w: fear.|
w: pay.|
w: sound.|
V:3
 F2 | A2 d2 d2 A2 | A4 z2 A2 | A2 G2 B2 B2 | A4 z2 A2 | d2 ^G2 A2 A2 | A4 ^G4 | A4 z4 |: %8
w: There|Da- vid’s grea- ter|son Has|fix’d his roy- al|throne, He|sits for grace and|judg- ment|there;|
w: How|pleas’d and blest was|I To|hear the peo- ple|cry, Come,|let us seek our|God to-|day:|
w: Zi-|on, thrice hap- py|place, A-|dorn’d with wond- rous|grace, And|walls of strength em-|brace thee|round;|
 d2 dd G2 A2 | A4 z2 ^G2 | A2 c2 d2 c2 | d4 z4 | z8 | z4 z2!f! c2 | d2 d2 B2 B2 | A4 A4 | A8 :| %17
w: He bids the saint be|glad, He|makes the sin- ner|sad,||And|hum- ble souls re-|joice with|fear.|
w: Yes, with a cheer- ful|zeal We|haste to Zi- on’s|hill||And|there our vows and|ho- nours|pay.|
w: In thee our tribes ap-|pear, To|pray, and praise, and|hear||The|sa- cred gos- pel’s|joy- ful|sound.|
V:4
 D,2 | D,2"^6" F,2"^65" G,2 A,2 | D,4 z2"^6" C,2 | D,2 G,2 E,2"^7" ^G,2 |"^64""^53" A,4 z2 D,2 | %5
w: There|Da- vid’s grea- ter|son Has|fix’d his roy- al|throne, He|
w: How|pleas’d and blest was|I To|hear the peo- ple|cry, Come,|
w: Zi-|on, thrice hap- py|place, A-|dorn’d with wond- rous|grace, And|
 D,2"^#" E,2 A,2 D,2 |"^64" E,4"^5#" E,4 | A,,4 z4 |: D,2"^6" F,G,"^6" E,2 D,2 | A,,4 z2"^#" E,2 | %10
w: sits for grace and|judg- ment|there;|He bids the saint be|glad, He|
w: let us seek our|God to-|day:|Yes, with a cheer- ful|zeal We|
w: walls of strength em-|brace thee|round;|In thee our tribes ap-|pear, To|
 A,2"^42" G,2"^6" F,2"^64" E,2 | %11
w: makes the sin- ner|
w: haste to Zi- on’s|
w: pray, and praise, and|
"^Notes:The order of staves in the source is Tenor - [Alto] - Air - [Bass], with the alto part printed in the treble clef an octave abovesounding pitch.Only the first verse of text is given in the source: subsequent verses have here been added editorially.The soprano G on beat 1 of bar 2 and the soprano D and alto F# on beat 1 of bar 4 are given as small crotchet grace notesin the source. These have been expanded editorially, with their respective time values taken in each case from the followingnote to which they are slurred (in each case, this following note is printed as a minim in the source)." D,4 z2"^["!p!"^]" A,,2 | %12
w: sad, And|
w: hill And|
w: hear The|
 D,2 E,2"^My tongue repeats her vows,Peace to this sacred house!For there my friends and kindred dwell:And since my glorious GodMakes thee his blest abode,My soul shall ever love thee well.""^6" F,2 G,2 | %13
w: hum- ble souls re-|
w: there our vows and|
w: sa- cred gos- pel’s|
"^6" F,2"^6" E,2 D,2"^["!f!"^]" A,2 |"^6" F,2 D,2 G,2"^6" G,2 |"^64" A,4"^53" A,,4 | D,8 :| %17
w: joice with fear, and|hum- ble souls re-|joice with|fear.|
w: ho- nours pay, and|there our vows and|ho- nours|pay.|
w: joy- ful sound, the|sa- cred gos- pel’s|joy- ful|sound.|

